!!!COM:	Busnoys, Antoine
!!!CDT:	~1430///-1492/11/06
!!!OTL:	Anthoni usque limina
!!!AGN:	Motet
!!!SCT:	Bus2004
!!!SCA:	Bus2004
!!!voices:	5
**kern	**kern	**kern	**kern	**kern
*staff5	*staff4	*staff3	*staff2	*staff1
*Ivox	*Ivox	*Ivox	*Ivox	*Ivox
*I"Bassus	*I"Bell	*I"Altus	*I"Discantus2	*I"Discantus1
*I'B	*I'Be	*I'A	*I'D2	*I'D1
*>[A,B]	*>[A,B]	*>[A,B]	*>[A,B]	*>[A,B]
*>A	*>A	*>A	*>A	*>A
*clefF4	*clefGv2	*clefGv2	*clefG2	*clefG2
*k[b-]	*k[]	*k[b-]	*k[b-]	*k[b-]
*M3/1	*M3/1	*M3/1	*M3/1	*M3/1
*met(O)	*met(O)	*met(O)	*met(O)	*met(O)
=1-	=1-	=1-	=1-	=1-
!!section: Anthonius usque limina
!!!OMD: Anthonius usque limina
0.r	0.r	1g	1.g	1.g
.	.	2e	.	.
.	.	2d	2f	2a
.	.	1g	1e-i	2.b-
.	.	.	.	4a
=2	=2	=2	=2	=2
0.r	0.r	1.a	2d	2.f
.	.	.	1d	.
.	.	.	.	4e-
.	.	.	.	2f
.	.	1b-	2B-	1g
.	.	.	1c	.
.	.	4a	.	2e-i
.	.	4g	.	.
=3	=3	=3	=3	=3
0.r	0.r	2.f	2.d	1.d
.	.	4e	4c	.
.	.	2f	2B-	.
.	.	1g	2G	2.e-i
.	.	.	1c	.
.	.	.	.	4d
.	.	2e	.	2c
=4	=4	=4	=4	=4
0.r	0.r	0.d	0.G	0.Bn
=5	=5	=5	=5	=5
0.r	0.r	0.r	2.g	0.r
.	.	.	4f	.
.	.	.	2d	.
.	.	.	1e-i	.
.	.	.	4d	.
.	.	.	4c	.
=6	=6	=6	=6	=6
0.r	0.r	2.g	2.B-	0.r
.	.	4f	4A	.
.	.	2d	2B-	.
.	.	1e-i	1c	.
.	.	4d	2A	.
.	.	4c	.	.
=7	=7	=7	=7	=7
0.r	0.r	2.B-	1G	2.g
.	.	4A	.	4f
.	.	2B-	1r	2d
.	.	1c	.	1e-i
.	.	.	1c	.
.	.	2A	.	4d
.	.	.	.	4c
=8	=8	=8	=8	=8
0.r	0.r	1G	1.d	2.B-
.	.	.	.	4A
.	.	1r	.	2B-
.	.	.	2c	1c
.	.	1c	2e	.
.	.	.	2f	2A
=9	=9	=9	=9	=9
0.r	0.r	1d	2g	2G
.	.	.	4f	2.B-
.	.	.	4e	.
.	.	2G	2d	.
.	.	.	.	4A
.	.	1d	1g	2G
.	.	.	.	1A
.	.	2c	2f#i	.
=10	=10	=10	=10	=10
[0.GG	0.d	1.d	0gl	0G
.	.	2c	.	.
.	.	[1B-	1r	1r
=11	=11	=11	=11	=11
1GG]	0.d	1B-]	0.r	1g
0D	.	1.A	.	2f
.	.	.	.	2g
.	.	.	.	1a
.	.	2G	.	.
=12	=12	=12	=12	=12
1G	0.d	1G	0.r	1b-
1F	.	1A	.	2a
.	.	.	.	1a
1G	.	1B-	.	.
.	.	.	.	2g
=13	=13	=13	=13	=13
2.D	0.d	1.A	0.r	1.a
4E	.	.	.	.
2F	.	.	.	.
1G	.	2G	.	1b-
.	.	2B-	.	.
2A	.	2c	.	4a
.	.	.	.	4g
=14	=14	=14	=14	=14
2B-	0.d	2d	0.r	1f
4A	.	4c	.	.
4G	.	4B-	.	.
2F	.	2A	.	1r
1G	.	2G	.	.
.	.	1A	.	1a
2F#i	.	.	.	.
=15	=15	=15	=15	=15
1G	0.d	2r	0.r	2.b-
.	.	2G	.	.
.	.	.	.	4g
2r	.	2F	.	2a
2G	.	2B-	.	1g
2.D	.	1A	.	.
.	.	.	.	2f#i
4C	.	.	.	.
=16	=16	=16	=16	=16
2BB-	0.d	1G	0.r	2g
2GG	.	.	.	2.d
2.BB-	.	2r	.	.
.	.	.	.	4c
.	.	1g	.	2B-
4C	.	.	.	.
1D	.	.	.	1A
.	.	2f#i	.	.
=17	=17	=17	=17	=17
1GG	0.d	1.g	0.r	2.G
.	.	.	.	4A
1r	.	.	.	2.B-
.	.	1b-	.	.
.	.	.	.	4c
1GG	.	.	.	2.d
.	.	4a	.	.
.	.	4g	.	4e
=18	=18	=18	=18	=18
1D	0.d	2f	0.r	2f
.	.	2.b-	.	2.d
1F	.	.	.	.
.	.	4a	.	4c
.	.	1a	.	2A
1G	.	.	.	1B-
.	.	2g	.	.
=19	=19	=19	=19	=19
1D	0.r	0a	0.r	1A
1F	.	.	.	2r
.	.	.	.	1d
1G	.	1b-	.	.
.	.	.	.	2e
=20	=20	=20	=20	=20
0D	0.r	2a	0.r	2f
.	.	2.f	.	2.a
.	.	4g	.	4g
.	.	2.a	.	2f
1C	.	.	.	1e
.	.	4g	.	.
.	.	2e	.	.
=21	=21	=21	=21	=21
1D	0.r	2f	0.r	0d
.	.	1d	.	.
2BB-	.	.	.	.
2GG	.	1g	.	.
1AA	.	.	.	1r
.	.	2f#i	.	.
=22	=22	=22	=22	=22
1GG	0.r	1g	0.r	1d
2AA	.	1r	.	2c
2GG	.	.	.	1d
1BB-	.	1d	.	.
.	.	.	.	2f
=23	=23	=23	=23	=23
2r	0.r	2c	0.r	2e
2.BB-	.	1d	.	2d
.	.	.	.	1f
4C	.	.	.	.
2D	.	2f	.	.
2E	.	2e	.	2g
2F	.	2d	.	[2a
=24	=24	=24	=24	=24
1D	0.r	1f	0.r	4a]
.	.	.	.	4f
.	.	.	.	2a
2E	.	2g	.	2g
2.F	.	2.a	.	2f
.	.	.	.	1d
4D	.	4f	.	.
4F	.	2a	.	.
4G	.	.	.	.
=25	=25	=25	=25	=25
2E	0.r	2g	0.r	2e
1D	.	2f	.	2.f
.	.	1d	.	.
.	.	.	.	4e
2BB-	.	.	.	2d
2C	.	2e	.	2c
2BB-	.	[2f	.	[2d
=26	=26	=26	=26	=26
2D	0.r	2f]	0.r	2d]
2E	.	4e	.	4c
.	.	4d	.	4B-
4F	.	2c	.	2A
4E	.	.	.	.
4D	.	2.d	.	2.B-
4C	.	.	.	.
2.BB-	.	.	.	.
.	.	4e	.	4c
.	.	[2f	.	[2d
4C	.	.	.	.
=27	=27	=27	=27	=27
2.D	0.r	4f]	0.r	4d]
.	.	4g	.	4e
.	.	1a	.	1f
4E	.	.	.	.
2F	.	.	.	.
1G	.	4g	.	1d
.	.	4f	.	.
.	.	1e	.	.
2A	.	.	.	2c#i
=28	=28	=28	=28	=28
2.B-	0.d	2.d	0.r	0d
4A	.	4c	.	.
2F	.	2A	.	.
1G	.	2G	.	.
.	.	1B-	.	1r
4F	.	.	.	.
4E	.	.	.	.
=29	=29	=29	=29	=29
2F	0.d	1A	0.r	1a
2D	.	.	.	.
2G	.	1r	.	2b-
2F	.	.	.	1a
1D	.	1a	.	.
.	.	.	.	2f
=30	=30	=30	=30	=30
1r	0.d	2b-	0.r	2g
.	.	1a	.	2a
1D	.	.	.	1d
.	.	2f	.	.
2GG	.	2g	.	1r
2FF	.	2a	.	.
=31	=31	=31	=31	=31
!! And even beyond, proclaim divine Providence,
!! Because you have manfully overcome.
2BB-	0.d	1d	0.r	1f
1BB-	.	.	.	.
.	.	1r	.	1b-
4AA	.	.	.	.
4GG	.	.	.	.
2.FF	.	1f	.	1a
4EE	.	.	.	.
=32	=32	=32	=32	=32
1GG	0.d	1b-	0.r	1g
2r	.	1a	.	1f
2D	.	.	.	.
2BB-	.	1g	.	2.g
2GG	.	.	.	.
.	.	.	.	4f
=33	=33	=33	=33	=33
2.D	0.d	1f	0.r	2d
.	.	.	.	2a
4C	.	.	.	.
4BB-	.	2.g	.	2.b-
4GG	.	.	.	.
4BB-	.	.	.	.
4C	.	4f	.	8aL
.	.	.	.	8gJ
2.D	.	2d	.	2f
.	.	2a	.	2f
4C	.	.	.	.
=34	=34	=34	=34	=34
4BB-	0.d	2.b-	0.r	2g
4GG	.	.	.	.
4BB-	.	.	.	2b-
4C	.	8aL	.	.
.	.	8gJ	.	.
1D	.	2f	.	1a
.	.	2f	.	.
1GG	.	2g	.	2g
.	.	2b-	.	[2g
=35	=35	=35	=35	=35
1r	0.d	1a	0.r	2g]
.	.	.	.	2f
1GG	.	2.g	.	1g
.	.	4f	.	.
2D	.	2.d	.	2f
[2BB-	.	.	.	[2d
.	.	4e	.	.
=36	=36	=36	=36	=36
4BB-]	0.d	2.f	0.r	4d]
4AA	.	.	.	4c
2GG	.	.	.	2B-
.	.	4g	.	.
2FF	.	2a	.	2A
2.GG	.	1b-	.	2G
.	.	.	.	1B-
4AA	.	.	.	.
4BB-	.	4a	.	.
4C	.	4g	.	.
=37	=37	=37	=37	=37
0D	0.r	1f	0.r	0.A
.	.	1r	.	.
1D	.	1f	.	.
=38	=38	=38	=38	=38
2BB-	0.r	1g	0.r	1r
1C	.	.	.	.
.	.	1a	.	1r
2AA	.	.	.	.
1GG	.	[1b-	.	1d
=39	=39	=39	=39	=39
1r	0.r	2b-]	0.r	2B-
.	.	2g	.	1c
1F	.	2a	.	.
.	.	2cc	.	2A
2.G	.	1b-	.	1G
4E	.	.	.	.
=40	=40	=40	=40	=40
2F	0.r	2a	0.r	2A
1G	.	2.b-	.	2G
.	.	.	.	2B-
.	.	4a	.	.
2E	.	2g	.	2c
2D	.	2f	.	2.d
2GG	.	[2g	.	.
.	.	.	.	4c
=41	=41	=41	=41	=41
2BB-	0.r	2g]	0.r	2d
2C	.	2e	.	2e
1D	.	2d	.	2.f
.	.	1d	.	.
.	.	.	.	4e
1r	.	.	.	2f
.	.	4c	.	2g
.	.	4B-	.	.
=42	=42	=42	=42	=42
1r	0.r	1A	0.r	2a
.	.	.	.	2.a
1AA	.	1r	.	.
.	.	.	.	4g
.	.	.	.	4f
.	.	.	.	4e
1BB-	.	1r	.	1d
=43	=43	=43	=43	=43
2C	0.r	1A	0.r	0.r
2.D	.	.	.	.
.	.	1B-	.	.
4C	.	.	.	.
2BB-	.	.	.	.
2AA	.	2c	.	.
[2BB-	.	[2d	.	.
=44	=44	=44	=44	=44
4BB-]	0.r	4d]	0.r	0.r
4AA	.	4c	.	.
2GG	.	2B-	.	.
2FF	.	2A	.	.
1GG	.	2.B-	.	.
.	.	4A	.	.
2BB-	.	2G	.	.
=45	=45	=45	=45	=45
2AA	0.r	2F	0.r	0.r
2GG	.	1G	.	.
1BB-	.	.	.	.
.	.	2B-	.	.
1C	.	2A	.	.
.	.	2G	.	.
=46	=46	=46	=46	=46
[0.BB-	0.d	0B-	0.r	1f
.	.	.	.	2d
.	.	.	.	2e
.	.	1r	.	1f
=47	=47	=47	=47	=47
0.BB-]	0.d	1f	0.r	1.B-
.	.	2d	.	.
.	.	2e	.	2c
.	.	1f	.	1d
=48	=48	=48	=48	=48
1r	0.d	1.B-	0.r	0G
1r	.	.	.	.
.	.	2c	.	.
1GG	.	1d	.	2r
.	.	.	.	2G
=49	=49	=49	=49	=49
2GG	0.d	2.G	0.r	2.B-
2.GG	.	.	.	.
.	.	4A	.	4c
.	.	2.B-	.	2.d
4AA	.	.	.	.
2.BB-	.	.	.	.
.	.	4c	.	4e
.	.	2.d	.	2.f
4C	.	.	.	.
[2D	.	.	.	.
.	.	4e	.	4g
=50	=50	=50	=50	=50
2D]	0.d	2f	0.r	2a
2GG	.	2g	.	1b-
2r	.	2d	.	.
2GG	.	4c	.	4a
.	.	4B-	.	4g
2.D	.	1A	.	2.f#i
4C	.	.	.	4e
=51	=51	=51	=51	=51
2.BB-	0.d	2r	0.r	1g
.	.	2G	.	.
4AA	.	.	.	.
2GG	.	2B-	.	1r
2FF	.	2A	.	.
2GG	.	2.B-	.	1r
[2BB-	.	.	.	.
.	.	4c	.	.
=52	=52	=52	=52	=52
4BB-]	0.d	2.d	0.r	1r
4C	.	.	.	.
1D	.	.	.	.
.	.	4c	.	.
.	.	2B-	.	1r
1G	.	4A	.	.
.	.	4G	.	.
.	.	1A	.	1a
2F#i	.	.	.	.
=53	=53	=53	=53	=53
[0.G	0.d	1.G	0.r	1.b-
.	.	2A	.	2a
.	.	2.B-	.	2g
.	.	.	.	4f
.	.	4c	.	4e
=54	=54	=54	=54	=54
1G]	0.dl	2.d	0.r	2.d
.	.	4e	.	4c
0D	.	2f	.	2B-
.	.	1g	.	4A
.	.	.	.	4G
.	.	.	.	1A
.	.	2f#i	.	.
=55	=55	=55	=55	=55
0.GGl	0.r	0.gl	0.r	0.Gl
!!LO:LB:i:g=z
=56||	=56||	=56||	=56||	=56||
*>B	*>B	*>B	*>B	*>B
*clefF4	*clefGv2	*clefGv2	*clefG2	*clefG2
*k[b-]	*k[]	*k[b-]	*k[b-]	*k[b-]
*M2/1	*M2/1	*M2/1	*M2/1	*M2/1
*met(O2)	*met(O2)	*met(O2)	*met(O2)	*met(O2)
!!section: Et ne post
!!!OMD: Et ne post
0r	0r	0d	0g	0G
=57.	=57.	=57.	=57.	=57.
0r	0r	1g	1e	1G
.	.	1g	1e	1G
=58.	=58.	=58.	=58.	=58.
0r	0r	1.f	1.d	0B-
.	.	2g	2e	.
=59	=59	=59	=59	=59
0r	0r	1a	1f	1A
.	.	[1b-	[1g	1G
=60.	=60.	=60.	=60.	=60.
0r	0r	2b-]	2g]	1B-
.	.	2a	2f	.
.	.	2g	2.e	1c
.	.	4f	.	.
.	.	4e	4d	.
=61.	=61.	=61.	=61.	=61.
0r	0r	2f	2d	1.d
.	.	2.a	1f	.
.	.	4g	.	.
.	.	2e	2g	4c
.	.	.	.	4B-
=62	=62	=62	=62	=62
0r	0r	1f	1a	1A
.	.	2g	[1b-	1G
.	.	[2g	.	.
=63.	=63.	=63.	=63.	=63.
0r	0r	2g]	2b-]	0B-
.	.	2f	2a	.
.	.	1d	[1g	.
=64.	=64.	=64.	=64.	=64.
0r	0r	2c	2g]	0c
.	.	1e-i	4f	.
.	.	.	4g	.
.	.	.	4a	.
.	.	.	4g	.
.	.	4d	4f	.
.	.	4c	4e	.
=65	=65	=65	=65	=65
0r	0r	0B-	0d	0G
=66.	=66.	=66.	=66.	=66.
0r	0r	0r	1g	0r
.	.	.	2a	.
.	.	.	[2b-	.
=67.	=67.	=67.	=67.	=67.
0r	0r	0r	4b-]	0r
.	.	.	4a	.
.	.	.	1g	.
.	.	.	2f	.
=68	=68	=68	=68	=68
0r	0r	0r	2g	1g
.	.	.	4f	.
.	.	.	4e	.
.	.	.	2f	2a
.	.	.	[2d	[2b-
=69.	=69.	=69.	=69.	=69.
0r	0r	0r	4d]	4b-]
.	.	.	4G	4a
.	.	.	2B-	1g
.	.	.	1A	.
.	.	.	.	2f
=70.	=70.	=70.	=70.	=70.
0r	0r	1g	1G	2g
.	.	.	.	4f
.	.	.	.	4e
.	.	2a	2d	2f
.	.	[2b-	[2f	[2d
=71	=71	=71	=71	=71
0r	0r	4b-]	4f]	4d]
.	.	4a	4e	4G
.	.	1g	1d	2B-
.	.	.	.	1A
.	.	2f	2c	.
=72.	=72.	=72.	=72.	=72.
0r	0r	2g	3%2dV	3GV
.	.	.	.	3.B-
.	.	4f	.	.
.	.	.	3gZ	.
.	.	4e	.	.
.	.	.	.	6cZ
.	.	2f	3.fV	3%2dV
.	.	[2d	6g	.
.	.	.	3aZ	3eZ
=73.	=73.	=73.	=73.	=73.
0r	0r	4d]	3.b-V	3fV
.	.	4G	.	.
.	.	.	.	3e
.	.	2B-	6a	.
.	.	.	3gZ	[3dZ
.	.	1A	3%2f#iV	3d]V
.	.	.	.	3c
.	.	.	3eZ	3B-Z
=74	=74	=74	=74	=74
0G	[0d	[0G	0r	[0d
=75.	=75.	=75.	=75.	=75.
1G	0d_	1G]	0r	0d]
1G	.	[1B-	.	.
=76.	=76.	=76.	=76.	=76.
0D	0d]	1B-]	0r	1r
.	.	1A	.	1f
=77	=77	=77	=77	=77
1GG	[0d	1G	0r	1g
1D	.	1F	.	1a
=78.	=78.	=78.	=78.	=78.
1.BB-	0d_	1G	0r	1b-
.	.	1B-	.	[1g
2C	.	.	.	.
=79.	=79.	=79.	=79.	=79.
1D	0d]	0A	0r	2g]
.	.	.	.	2f#i
1D	.	.	.	2f#i
.	.	.	.	2e
=80	=80	=80	=80	=80
2r	[0d	0G	0r	1.g
2GG	.	.	.	.
2.BB-	.	.	.	.
.	.	.	.	4f
4C	.	.	.	4e
=81.	=81.	=81.	=81.	=81.
2D	0d_	0r	0r	2f
2GG	.	.	.	2.d
2.D	.	.	.	.
.	.	.	.	4c
.	.	.	.	2B-
4E	.	.	.	.
=82.	=82.	=82.	=82.	=82.
2F	0d]	0r	0r	2A
1G	.	.	.	1B-
4F	.	.	.	4A
4G	.	.	.	4B-
=83	=83	=83	=83	=83
4A	[0d	1r	0r	4c
4G	.	.	.	4B-
4F#i	.	.	.	4A
4E	.	.	.	4G
1F#i	.	1a	.	1A
=84.	=84.	=84.	=84.	=84.
2G	0d_	2b-	0r	1r
2.B-	.	2.g	.	.
.	.	.	.	1G
4A	.	4a	.	.
2G	.	2b-	.	.
=85.	=85.	=85.	=85.	=85.
1F	0d]	4cc	0r	1A
.	.	4b-	.	.
.	.	4a	.	.
.	.	4g	.	.
1BB-	.	2f	.	1B-
.	.	2g	.	.
=86	=86	=86	=86	=86
2r	[0d	2a	0r	2A
1BB-	.	2.b-	.	1d
.	.	4a	.	.
[2F	.	[2a	.	2c
=87.	=87.	=87.	=87.	=87.
4F]	0d_	1a]	0r	1A
4E	.	.	.	.
2F	.	.	.	.
1G	.	2.g	.	1B-
.	.	4f	.	.
=88.	=88.	=88.	=88.	=88.
2F	0d]	1a	0r	1.A
1.D	.	.	.	.
.	.	1f	.	.
.	.	.	.	[2B-
=89	=89	=89	=89	=89
1G	[0d	1b-	0r	4B-]
.	.	.	.	4c
.	.	.	.	2.d
2.F	.	1a	.	.
.	.	.	.	4c
.	.	.	.	[2A
4E	.	.	.	.
=90.	=90.	=90.	=90.	=90.
2.D	0d_	1f	0r	4A]
.	.	.	.	4G
.	.	.	.	2.B-
4C	.	.	.	.
2.BB-	.	1d	.	.
.	.	.	.	4A
.	.	.	.	2F
4AA	.	.	.	.
=91.	=91.	=91.	=91.	=91.
1GG	0d]	2r	0r	2G
.	.	1g	.	2B-
1D	.	.	.	1A
.	.	2f	.	.
=92	=92	=92	=92	=92
2r	0r	2g	0r	1G
1G	.	2b-	.	.
.	.	1a	.	1r
2F	.	.	.	.
=93.	=93.	=93.	=93.	=93.
2G	0r	2g	0r	0r
2B-	.	2.d	.	.
1A	.	.	.	.
.	.	4c	.	.
.	.	2A	.	.
=94.	=94.	=94.	=94.	=94.
2G	0r	2B-	0r	0r
2.D	.	4A	.	.
.	.	4G	.	.
.	.	1F	.	.
4C	.	.	.	.
2AA	.	.	.	.
=95	=95	=95	=95	=95
2BB-	0r	2G	0r	0r
4AA	.	2B-	.	.
4GG	.	.	.	.
1FF	.	2c	.	.
.	.	[2d	.	.
=96.	=96.	=96.	=96.	=96.
2GG	0r	4d]	0r	0r
.	.	4c	.	.
2.BB-	.	2B-	.	.
.	.	1A	.	.
4C	.	.	.	.
[2D	.	.	.	.
=97.	=97.	=97.	=97.	=97.
4D]	0r	2B-	0r	0r
4C	.	.	.	.
2BB-	.	1d	.	.
1AA	.	.	.	.
.	.	2c	.	.
=98	=98	=98	=98	=98
2BB-	0r	2.B-	0r	0r
1D	.	.	.	.
.	.	4A	.	.
.	.	2B-	.	.
2C	.	2c	.	.
=99.	=99.	=99.	=99.	=99.
2.BB-	0r	2.d	0r	0r
4AA	.	4c	.	.
2BB-	.	2d	.	.
2C	.	2e	.	.
=100.	=100.	=100.	=100.	=100.
2D	0r	2f	0r	1r
2F	.	4e	.	.
.	.	4d	.	.
1E	.	2.c#i	.	1g
.	.	4Bni	.	.
=101	=101	=101	=101	=101
0D	0r	0d	0r	2f
.	.	.	.	2.a
.	.	.	.	4g
.	.	.	.	[2f
=102.	=102.	=102.	=102.	=102.
1r	0r	0r	0r	2f]
.	.	.	.	4e
.	.	.	.	4d
1G	.	.	.	4e
.	.	.	.	4d
.	.	.	.	4c
.	.	.	.	4B-
=103.	=103.	=103.	=103.	=103.
2F	0r	0r	0r	2.A
2.A	.	.	.	.
.	.	.	.	4B-
.	.	.	.	2c
4G	.	.	.	.
[2F	.	.	.	[2d
=104	=104	=104	=104	=104
2F]	0r	0r	0r	4d]
.	.	.	.	4e
4E	.	.	.	2f
4D	.	.	.	.
4E	.	.	.	4g
4D	.	.	.	4f
4C	.	.	.	4e
4BB-	.	.	.	4d
=105.	=105.	=105.	=105.	=105.
2.AA	0r	0r	0r	2.c
4BB-	.	.	.	4d
2C	.	.	.	2e
[2D	.	.	.	[2f
=106.	=106.	=106.	=106.	=106.
4D]	0r	0r	0r	4f]
4E	.	.	.	4g
2F	.	.	.	2a
4G	.	.	.	2.g
4F	.	.	.	.
4E	.	.	.	.
4D	.	.	.	4f
=107	=107	=107	=107	=107
2C	0r	1r	0r	4e
.	.	.	.	4d
2D	.	.	.	1d
1E	.	1g	.	.
.	.	.	.	2c#i
=108.	=108.	=108.	=108.	=108.
1D	0r	2f	0r	2.d
.	.	2.b-	.	.
.	.	.	.	4c
1r	.	.	.	2B-
.	.	4a	.	.
.	.	[2cc	.	2A
=109.	=109.	=109.	=109.	=109.
0r	0r	4cc]	0r	2c
.	.	4b-	.	.
.	.	1g	.	2B-
.	.	.	.	1A
.	.	2f#i	.	.
=110	=110	=110	=110	=110
1r	[0d	1.g	0r	0G
1GG	.	.	.	.
.	.	4f	.	.
.	.	4e	.	.
=111.	=111.	=111.	=111.	=111.
1.D	0d_	2f	0r	1r
.	.	2.d	.	.
.	.	.	.	1f
.	.	4c	.	.
2C	.	2A	.	.
=112.	=112.	=112.	=112.	=112.
2BB-	0d]	1B-	0r	1g
2GG	.	.	.	.
1D	.	2A	.	1a
.	.	2F	.	.
=113	=113	=113	=113	=113
1GG	[0d	2G	0r	1.b-
.	.	1B-	.	.
1G	.	.	.	.
.	.	2c	.	2g
=114.	=114.	=114.	=114.	=114.
1F	0d_	2A	0r	1a
.	.	1d	.	.
1G	.	.	.	[1b-
.	.	[2g	.	.
=115.	=115.	=115.	=115.	=115.
1r	0d]	2g]	0r	2b-]
.	.	2f	.	2a
1G	.	2g	.	1g
.	.	2b-	.	.
=116	=116	=116	=116	=116
1.D	[0d	2a	0r	0f
.	.	2.d	.	.
.	.	4c	.	.
2E	.	2B-	.	.
=117.	=117.	=117.	=117.	=117.
1F	0d_	2A	0r	0r
.	.	[1.d	.	.
[1BB-	.	.	.	.
=118.	=118.	=118.	=118.	=118.
2BB-]	0d]	4d]	0r	0f
.	.	4c	.	.
2C	.	2B-	.	.
1D	.	1A	.	.
=119	=119	=119	=119	=119
2GG	[0d	0G	0r	1.g
1BB-	.	.	.	.
2C	.	.	.	4f
.	.	.	.	4e
=120.	=120.	=120.	=120.	=120.
2D	0d_	1r	0r	2f
2.BB-	.	.	.	2.d
.	.	1f	.	.
4C	.	.	.	4c
2D	.	.	.	2A
=121.	=121.	=121.	=121.	=121.
1GG	0d]	1g	0r	1B-
2r	.	1a	.	2A
2D	.	.	.	2F
=122	=122	=122	=122	=122
2.BB-	[0d	1.b-	0r	2G
.	.	.	.	1B-
4C	.	.	.	.
2D	.	.	.	.
2E	.	2g	.	2c
=123.	=123.	=123.	=123.	=123.
1F	0d_	1a	0r	1A
[1G	.	[1b-	.	2G
.	.	.	.	[2d
=124.	=124.	=124.	=124.	=124.
2G]	0d]	2b-]	0r	4d]
.	.	.	.	4c
2F	.	2a	.	2A
2.G	.	1g	.	1B-
4F	.	.	.	.
=125	=125	=125	=125	=125
2.D	[0d	0f	0r	1.A
4E	.	.	.	.
2F	.	.	.	.
2D	.	.	.	[2B-
=126.	=126.	=126.	=126.	=126.
2G	0d_	1g	0r	2B-]
2B-	.	.	.	2G
2A	.	[1a	.	[1F
[2D	.	.	.	.
=127.	=127.	=127.	=127.	=127.
2D]	0d]	2a]	0r	2F]
2E	.	2g	.	2G
2.F	.	1f	.	2A
.	.	.	.	2B-
4G	.	.	.	.
=128	=128	=128	=128	=128
1A	0r	2e	0r	1c
.	.	2.a	.	.
1r	.	.	.	1A
.	.	4g	.	.
.	.	2e	.	.
=129.	=129.	=129.	=129.	=129.
1A	0r	1f	0r	0r
2G	.	1e	.	.
2E	.	.	.	.
=130.	=130.	=130.	=130.	=130.
2F	0r	2d	0r	1a
2r	.	2f	.	.
1r	.	1e	.	2g
.	.	.	.	2e
=131	=131	=131	=131	=131
0r	0r	1a	0r	1f
.	.	2g	.	1e
.	.	2e	.	.
=132.	=132.	=132.	=132.	=132.
1A	0r	1f	0r	0r
2G	.	1e	.	.
2E	.	.	.	.
=133.	=133.	=133.	=133.	=133.
2F	0r	0r	0r	1a
1D	.	.	.	.
.	.	.	.	2g
2C	.	.	.	2e
=134	=134	=134	=134	=134
0r	0r	1a	0r	2f
.	.	.	.	1d
.	.	2g	.	.
.	.	2e	.	2c
=135.	=135.	=135.	=135.	=135.
1r	0r	2f	0r	2d
.	.	2d	.	2f
1A	.	2e	.	1e
.	.	2c	.	.
=136.	=136.	=136.	=136.	=136.
2G	0r	2d	0r	1r
2E	.	2e	.	.
2F	.	1A	.	1a
[2D	.	.	.	.
=137	=137	=137	=137	=137
2D]	0r	1r	0r	2g
2C	.	.	.	2e
2D	.	1a	.	2f
2F	.	.	.	2d
=138.	=138.	=138.	=138.	=138.
2E	0r	2g	0r	2e
2r	.	2e	.	2c
1r	.	2f	.	2d
.	.	2g	.	2e
=139.	=139.	=139.	=139.	=139.
1r	0r	1e	0r	1A
1A	.	1f	.	1r
=140	=140	=140	=140	=140
2G	0r	1r	0r	1e
2E	.	.	.	.
2F	.	1a	.	1r
[2D	.	.	.	.
=141.	=141.	=141.	=141.	=141.
2D]	0r	2g	0r	1r
2C	.	2e	.	.
2D	.	2f	.	1a
2F	.	2d	.	.
=142.	=142.	=142.	=142.	=142.
2E	0r	2e	0r	2g
2.A	.	2.c	.	2e
.	.	.	.	2f
4G	.	4B-	.	.
2F	.	[2A	.	[2d
=143	=143	=143	=143	=143
1E	0r	2A]	0r	2d]
.	.	2G	.	2c
1D	.	2.A	.	2d
.	.	.	.	2f
.	.	4B-	.	.
=144.	=144.	=144.	=144.	=144.
0r	0r	2c	0r	2e
.	.	2d	.	2f
.	.	2e	.	2g
.	.	[2f	.	[2a
=145.	=145.	=145.	=145.	=145.
0r	0r	2f]	0r	2a]
.	.	4e	.	4g
.	.	4d	.	4f
.	.	2.c#i	.	1e
.	.	4Bni	.	.
=146	=146	=146	=146	=146
1.D	[0d	1d	0r	0d
.	.	1r	.	.
2E	.	.	.	.
=147.	=147.	=147.	=147.	=147.
1F	0d_	1.d	0r	0r
1G	.	.	.	.
.	.	2e	.	.
=148.	=148.	=148.	=148.	=148.
1F	0d]	1f	0r	1.d
[1B-	.	1g	.	.
.	.	.	.	2e
=149	=149	=149	=149	=149
2B-]	[0d	1f	0r	1f
2A	.	.	.	.
2.G	.	1b-	.	1g
4F	.	.	.	.
=150.	=150.	=150.	=150.	=150.
1D	0d_	1a	0r	1f
1GG	.	2.g	.	1b-
.	.	4f	.	.
=151.	=151.	=151.	=151.	=151.
1r	0d]	1d	0r	1a
1GG	.	[1G	.	2.g
.	.	.	.	4f
=152	=152	=152	=152	=152
1.BB-	[0d	2G]	0r	1.d
.	.	2A	.	.
.	.	[1B-	.	.
2C	.	.	.	2e
=153.	=153.	=153.	=153.	=153.
1.D	0d_	2B-]	0r	2f
.	.	2A	.	2g
.	.	1F	.	1a
2C	.	.	.	.
=154.	=154.	=154.	=154.	=154.
1BB-	0d]	1G	0r	2g
.	.	.	.	1b-
1GG	.	1B-	.	.
.	.	.	.	4a
.	.	.	.	4g
=155	=155	=155	=155	=155
1.D	[0d	1A	0r	1f
.	.	[1d	.	[1b-
2E	.	.	.	.
=156.	=156.	=156.	=156.	=156.
1F	0d_	2d]	0r	2b-]
.	.	2c	.	2a
1G	.	1B-	.	[1g
=157.	=157.	=157.	=157.	=157.
0D	0d]	1.A	0r	2g]
.	.	.	.	1f#i
.	.	2G	.	2e
=158	=158	=158	=158	=158
[0GG	[0d	3%4GV	0r	3%4gV
.	.	3%2AZ	.	3f
.	.	.	.	3eZ
=159.	=159.	=159.	=159.	=159.
0GG]	0d_	3%2.B-V	0r	3%2.dV
.	.	3A	.	3c
.	.	3%2GZ	.	3%2B-Z
=160.	=160.	=160.	=160.	=160.
0r	0d]	3%2FV	0r	3%2AV
.	.	3%2.G	.	3%2.B-
.	.	3AZ	.	3cZ
=161	=161	=161	=161	=161
1G	[0dl	3%2.B-V	0r	3%2.dV
3F	.	3c	.	3e
3%2D	.	3%2dZ	.	3%2fZ
=162.	=162.	=162.	=162.	=162.
3%2E	0d_	3%2GV	0r	3%2gV
3%2F	.	3%2F	.	3%2.a
[3%2G	.	[3%2B-Z	.	.
.	.	.	.	3gZ
=163.	=163.	=163.	=163.	=163.
3%2G]	0d]	3%2B-]V	0r	3%2.gV
3%4D	.	3%4AZ	.	.
.	.	.	.	3f#i
.	.	.	.	3f#i
.	.	.	.	3eZ
=164	=164	=164	=164	=164
0GGl	0r	0Gl	0r	0gl
==	==	==	==	==
*-	*-	*-	*-	*-
!!!RDF**kern: l=long note in original notation
!!!RDF**kern: i=editorial accidental
!!!RDF**kern: V=start of tuplet marker
!!!RDF**kern: Z=end of tuplet marker
!!!ENC:	Jesse Rodin 2007; Megan K. Eagen 2013/04/30
!!!END:	2013/04/30/
!!!EED:	Jesse Rodin
!!!EEV:	2014/01/03/
!!!ONB:	Translated from MusicXML and edited on 2014/01/03/ by Craig Sapp
!!muse2ps: C^@{COM}^i2I150v85,85,85,85,130Q16
